!!!CDT:
!!!PTL: Il primo libro de madrigali a cinque voci
!!!PPP: Venice
!!!PPR: Angelo Gardano
!!!PDT: 1591
!!!PUB-format:
!!!RISM: B 3493
!!!rime: 289
!!!AGN: Madrigal
!!!SCT: Trm0289a
!!!SCA: Trm0289a
!!!original-voices: 5
!!!extant-voices: 5
!!!complete: Y
!!!final: C
!!!COM: Bonini, Pietro Andrea
!!!OTL: Già tu volasti quattro volte e sei
**kern	**text	**kern	**text	**kern	**text	**kern	**text	**kern	**text
*part5	*part5	*part4	*part4	*part3	*part3	*part2	*part2	*part1	*part1
*staff5	*staff5	*staff4	*staff4	*staff3	*staff3	*staff2	*staff2	*staff1	*staff1
*I"Basso	*	*I"Tenore	*	*I"Alto	*	*I"Quinto	*	*I"Canto	*
*I'B	*	*I'T	*	*I'A	*	*I'V	*	*I'C	*
*oclefF4	*	*oclefC4	*	*oclefC3	*	*oclefC1	*	*oclefC1	*
*clefF4	*	*clefGv2	*	*clefGv2	*	*clefG2	*	*clefG2	*
*k[]	*	*k[]	*	*k[]	*	*k[]	*	*k[]	*
*omet(C)	*	*omet(C)	*	*omet(C)	*	*omet(C)	*	*omet(C)	*
*M4/2	*	*M4/2	*	*M4/2	*	*M4/2	*	*M4/2	*
=1	=1	=1	=1	=1	=1	=1	=1	=1	=1
0r	.	0r	.	1r	.	2c	Già	0r	.
.	.	.	.	.	.	4c	tu	.	.
.	.	.	.	.	.	4c	vo-	.	.
.	.	.	.	2c	Già	8eL	-la-	.	.
.	.	.	.	.	.	8d	.	.	.
.	.	.	.	.	.	8e	.	.	.
.	.	.	.	.	.	8fJ	.	.	.
.	.	.	.	4c	tu	2g	.	.	.
.	.	.	.	4c	vo-	.	.	.	.
=2	=2	=2	=2	=2	=2	=2	=2	=2	=2
0r	.	1r	.	8eL	-la-	2.c	-sti,	2g	Già
.	.	.	.	8d	.	.	.	.	.
.	.	.	.	8e	.	.	.	.	.
.	.	.	.	8fJ	.	.	.	.	.
.	.	.	.	2e	.	.	.	4g	tu
.	.	.	.	.	.	4g	<Già	4g	vo-
.	.	2G	Già	4d	-sti,	4g	tu	8bL	-la-
.	.	.	.	.	.	.	.	8a	.
.	.	.	.	4d	<Già	4g	vo-	8b	.
.	.	.	.	.	.	.	.	8ccJ	.
.	.	4G	tu	4g	tu	8bL	-la-	2dd	.
.	.	.	.	.	.	8a	.	.	.
.	.	4G	vo-	4g	vo-	8b	.	.	.
.	.	.	.	.	.	8ccJ	.	.	.
=3	=3	=3	=3	=3	=3	=3	=3	=3	=3
0r	.	8BL	-la-	4g	-la-	4.dd	.	2b	-sti
.	.	8A	.	.	.	.	.	.	.
.	.	8B	.	8f#XL	.	.	.	.	.
.	.	8cJ	.	8eJ	.	16ccL	.	.	.
.	.	.	.	.	.	16bJ	.	.	.
.	.	4d	.	4f#X	.	4a	.	2r	.
.	.	4G	-sti	4g	-sti>	4b	-sti>	.	.
.	.	4.c	quat-	4.e	quat-	4.cc	quat-	4.g	quat-
.	.	8B	-tro	8d	-tro	8dd	-tro	8g	-tro
.	.	4c	vol-	4e	vol-	4cc	vol-	4g	vol-
.	.	4e	-t'e	4g	-t'e	4b	-lt'e	4g	-t'e
=4	=4	=4	=4	=4	=4	=4	=4	=4	=4
0r	.	2d	se-	2f#X	se-	2dd	se-	2a	se-
.	.	4d	-i	4f#X	-i	4dd	-i	4a	-i
.	.	4G	In	4g	In	4dd	In	4b	In
.	.	4A	quel	4e	quel	4a	quel	4cc	quel
.	.	4.c	pet-	4.e	pet-	4.g	pet-	4cc	pet-
.	.	.	.	.	.	.	.	4c	-to
.	.	8c	-to	8e	-to	8g	-to	.	.
.	.	4B-X	sì	4d	sì	4g	sì	4d	sì
=5	=5	=5	=5	=5	=5	=5	=5	=5	=5
0r	.	1A	mol-	1c#X	mol-	1a	mol-	1e	mol-
.	.	1A	-le,	2c#X	-le,	[1a	-le,	2e	-le,
.	.	.	.	[2d	Va-	.	.	[2f	Va-
=6	=6	=6	=6	=6	=6	=6	=6	=6	=6
0r	.	1r	.	4d]	.	1a]	.	4f]	.
.	.	.	.	8cnXi	-ga	.	.	8e	-ga
.	.	.	.	8B	far-	.	.	8d	far-
.	.	.	.	2A	-fal-	.	.	2c#X	-fal-
.	.	2.G	Va-	2G	-la,	2.b-X	Va-	2d	-la,
.	.	.	.	2r	.	.	.	[2dd	<Va-
.	.	8F	-ga	.	.	8a	-ga	.	.
.	.	8E	far-	.	.	8g	far-	.	.
=7	=7	=7	=7	=7	=7	=7	=7	=7	=7
0r	.	0D	-fal-	2.d	<Va-	2f#X	-fal-	4dd]	.
.	.	.	.	.	.	.	.	8ccnXi	-ga
.	.	.	.	.	.	.	.	8b	far-
.	.	.	.	.	.	4f#i	-la,	4.a	-fal-
.	.	.	.	8c	-ga	2dd	<Va-	.	.
.	.	.	.	8B	far-	.	.	8g	.
.	.	.	.	4.A	-fal-	.	.	4f#X	.
.	.	.	.	.	.	8cc	-ga	2g	.
.	.	.	.	16BL	.	8bnXi	far-	.	.
.	.	.	.	16cJ	.	.	.	.	.
.	.	.	.	2d	.	2a	-fal-	.	.
.	.	.	.	.	.	.	.	4f#X	.
=8	=8	=8	=8	=8	=8	=8	=8	=8	=8
0r	.	1G	-la,	1d	-la,>	1b	-la,>	1g	-la,>
.	.	1c	hor	2r	.	2r	.	2r	.
.	.	.	.	2e	hor	2cc	hor	2g	hor
=9	=9	=9	=9	=9	=9	=9	=9	=9	=9
0r	.	1B-X	mor-	1.f	mor-	1.dd	mor-	1.b-X	mor-
.	.	1A	-r'al	.	.	.	.	.	.
.	.	.	.	2f	-t'al	2cc	-t'al	[2a	-t'al
=10	=10	=10	=10	=10	=10	=10	=10	=10	=10
0r	.	2BnXi	lu-	2d	lu-	2b	lu-	4a]	.
.	.	.	.	.	.	.	.	2g	lu-
.	.	2c	-me	2c	-me	4a	-me	.	.
.	.	.	.	.	.	2cc	se-	4f#X	-me
.	.	1G	se-	1d	se-	.	.	1g	se-
.	.	.	.	.	.	8bL	.	.	.
.	.	.	.	.	.	8aJ	.	.	.
.	.	.	.	.	.	2b	.	.	.
=11	=11	=11	=11	=11	=11	=11	=11	=11	=11
4r	.	1C	-i.	1e	-i.	2cc	-i.	1g	-i.
4G	Non	.	.	.	.	.	.	.	.
4G	bra-	.	.	.	.	4r	.	.	.
4G	-m'io	.	.	.	.	4g	Non	.	.
2E	lu-	4r	.	2r	.	4g	bra-	1r	.
.	.	4G	Non	.	.	4g	-m'io	.	.
2C	-ce,	4G	bra-	4r	.	2e	lu-	.	.
.	.	4G	-m'io	4g	Non	.	.	.	.
=12	=12	=12	=12	=12	=12	=12	=12	=12	=12
4r	.	4B	lu-	4g	bra-	2d	-ce,	4r	.
4G	né	4G	-ce,	4g	-m'io	.	.	4b	né
2A	son	2r	.	2e	lu-	2r	.	2cc	son
4F#X	tan-	4r	.	2d	-ce,	4r	.	4a	tan-
4G	-to	4d	né	.	.	4b	né	4g	-to
2C	fol-	2e	son	2r	.	2cc	son	2g	fol-
=13	=13	=13	=13	=13	=13	=13	=13	=13	=13
2G	-le,	4d	tan-	4r	.	4b	tan-	4g	-le,
.	.	4d	-to	4d	né	4g	-to	4b	<né
2r	.	2c	fol-	2e	son	2g	fol-	2cc	son
4r	.	2G	-le;	4.d	tan-	4g	-le,	4b	tan-
4G	<né	.	.	.	.	4b	<né	2g	-to
.	.	.	.	8e	-to	.	.	.	.
2A	son	2r	.	2c	fol-	2cc	son	.	.
.	.	.	.	.	.	.	.	4f#i	fol-
=14	=14	=14	=14	=14	=14	=14	=14	=14	=14
4G	tan-	1r	.	4d	-le;	4b	tan-	2g	-le;>
4E	-to	.	.	2e	Ma	4g	-to	.	.
2F	fol-	.	.	.	.	2a	fol-	2r	.
.	.	.	.	4d	la	.	.	.	.
2C	-le;>	2r	.	2e	mor-	2g	-le,>	2r	.
2r	.	[2c	Ma	[2e	-te	2r	.	[2g	Ma
=15	=15	=15	=15	=15	=15	=15	=15	=15	=15
1r	.	2c]	.	2e]	.	1r	.	2g]	.
.	.	2A	la	2f	vor-	.	.	2a	la
2r	.	2.G	mor-	2g	-re-	2r	.	1b	mor-
[2G	Ma	.	.	[2d	.	[2g	Ma	.	.
.	.	4A	.	.	.	.	.	.	.
=16	=16	=16	=16	=16	=16	=16	=16	=16	=16
2G]	.	2B	.	2d]	.	2g]	.	2b	-te
2E	la	2G	-te	2e	.	2g	la	2cc#X	vor-
1D	mor-	1r	.	2.f#X	.	1a	mor-	2.dd	-re-
.	.	.	.	4e	.	.	.	8ccnXiL	.
.	.	.	.	.	.	.	.	8bJ	.
=17	=17	=17	=17	=17	=17	=17	=17	=17	=17
2D	-te	2r	.	2f#X	.	2dd	-te	2a	.
2E	vor-	2G	vor-	1g	.	2b	vor-	2g	.
1D	-re-	1d	-re-	.	.	1dd	-re-	1a	.
.	.	.	.	2f#X	.	.	.	.	.
=18	=18	=18	=18	=18	=18	=18	=18	=18	=18
1G	-i	1G	-i	2.g	-i	2.dd	-i	2.b	-i
.	.	.	.	4g	Do-	4b	Do-	4dd	Do-
1r	.	1r	.	4g	-ve	4b	-ve	4dd	-ve
.	.	.	.	4g	for-	4b	for-	4dd	for-
.	.	.	.	4d	-tu-	4a	-tu-	4dd	-tu-
.	.	.	.	4g	-na	4b	-na	4b	-na
=19	=19	=19	=19	=19	=19	=19	=19	=19	=19
0r	.	1r	.	2.f	dar-	2.cc	dar-	2.a	dar-
.	.	.	.	4g	-la a	4b	-la a	4g	-la a
.	.	2r	.	4d	te	4a	te	4f#X	te
.	.	.	.	4e	non	4g	non	2g	non
.	.	4r	.	2d	vol-	2a	vol-	.	.
.	.	4d	Do-	.	.	.	.	4f#X	vol-
=20	=20	=20	=20	=20	=20	=20	=20	=20	=20
4r	.	4d	-ve	2G	-le,	4b	-le,	4g	-le,
4G	Do-	4d	for-	.	.	4g	Do-	4b	Do-
4G	-ve	4d	-tu-	4r	.	4g	-ve	4b	-ve
4G	for-	4G	-na	4d	Do-	4g	for-	4b	for-
4D	-tu-	2d	dar-	4d	-ve	4f#X	-tu-	4a	-tu-
4G	-na	.	.	4d	for-	4g	-na	4b	-na
[2F	dar-	2A	-la	4f	-tu-	[2a	dar-	[2cc	dar-
.	.	.	.	4f	-na	.	.	.	.
=21	=21	=21	=21	=21	=21	=21	=21	=21	=21
4F]	.	2r	.	4f	dar-	4a]	.	4cc]	.
4G	-la a	.	.	4d	-la a	4g	-la a	4b	-la a
4D	te	4r	.	4d	te	4f#X	te	4a	te
4E	non	4G	a	4B	non	4g	non	4g	non
1D	vol-	4F#X	te	1d	vol-	4a	vol-	1dd	vol-
.	.	4G	non	.	.	2g	.	.	.
.	.	2A	vol-	.	.	.	.	.	.
.	.	.	.	.	.	4f#X	.	.	.
=22	=22	=22	=22	=22	=22	=22	=22	=22	=22
1GG	-le.	1B	-le.	1d	-le.	1g	-le.	1b	-le.
1r	.	1r	.	1r	.	1r	.	1r	.
=23	=23	=23	=23	=23	=23	=23	=23	=23	=23
0r	.	0r	.	1c	O	1cc	O	1ee	O
.	.	.	.	4.g	dol-	4.b	dol-	4.dd	dol-
.	.	.	.	8g	-ce	8b	-ce	8dd	-ce
.	.	.	.	4g	chiu-	4b	chiu-	4dd	chiu-
.	.	.	.	4d	-der	4a	-der	4dd	-der
=24	=24	=24	=24	=24	=24	=24	=24	=24	=24
1r	.	1r	.	2e	gl'oc-	2g#X	gl'oc-	2b	gl'oc-
.	.	.	.	2e	-chi,	2g#X	-chi,	2b	-chi,
1C	O	2r	.	2r	.	2r	.	2r	.
.	.	2c	O	2g	O	2ee	O	2cc	O
=25	=25	=25	=25	=25	=25	=25	=25	=25	=25
4.G	dol-	4.d	dol-	4.g	dol-	4.dd	dol-	4.b	dol-
8G	-ce	8d	-ce	8g	-ce	8dd	-ce	8b	-ce
4G	chiu-	4G	chiu-	4g	chiu-	4dd	chiu-	4b	chiu-
4D	-der	4A	-der	4f	-der	4dd	-der	4a	-der
2E	gl'oc-	2e	gl'oc-	2e	gl'oc-	2b	gl'oc-	2g#X	gl'oc-
2E	-chi,	2B	-chi,	2e	-chi,	2b	-chi,	2g#X	-chi,
=26	=26	=26	=26	=26	=26	=26	=26	=26	=26
1.G	S'av-	1r	.	1.d	S'av-	1.b	S'av-	1r	.
.	.	[1d	S'av-	.	.	.	.	[1b	S'av-
2F	-ver-	.	.	2d	-ver-	2a	-ver-	.	.
=27	=27	=27	=27	=27	=27	=27	=27	=27	=27
0E	-rà	2d]	.	0e	-rà,	0g	-rà	2b]	.
.	.	2c	-ver-	.	.	.	.	2a	-ver-
.	.	1B	-rà,	.	.	.	.	[1g	-rà
=28	=28	=28	=28	=28	=28	=28	=28	=28	=28
4C	che	0r	.	1.g	S'av-	4e	che	1g]	.
4D	spi-	.	.	.	.	4f	spi-	.	.
4E	-rar	.	.	.	.	4g	-rar	.	.
4F	in	.	.	.	.	4a	in	.	.
4G	lui	.	.	.	.	4b	lui	1r	.
4E	mi	.	.	.	.	2cc	mi	.	.
2D	toc-	.	.	2f	-ver-	.	.	.	.
.	.	.	.	.	.	4b	toc-	.	.
=29	=29	=29	=29	=29	=29	=29	=29	=29	=29
1C	-chi,	1r	.	1e	-ra	2.cc	-chi,	2r	.
.	.	.	.	.	.	.	.	4c	che
.	.	.	.	.	.	8bL	.	4d	spi-
.	.	.	.	.	.	8aJ	.	.	.
2r	.	[1c	S'av-	4c	che	1g	.	4e	-rar
.	.	.	.	4d	spi-	.	.	4f	in
4C	<che	.	.	4e	-rar	.	.	[2g	lui
4D	spi-	.	.	4f	in	.	.	.	.
=30	=30	=30	=30	=30	=30	=30	=30	=30	=30
4E	-rar	2c]	.	2.g	lui	2r	.	4g]	.
4F	in	.	.	.	.	.	.	4a	mi
4G	lui	2B	-ver-	.	.	1g	S'av-	4.b	toc-
4GG	mi	.	.	4d	mi	.	.	.	.
.	.	.	.	.	.	.	.	8cc	.
1D	toc-	1A	-rà	2d	toc-	.	.	2dd	.
.	.	.	.	2d	-chi,	2f#X	-ver-	2a	-chi,
=31	=31	=31	=31	=31	=31	=31	=31	=31	=31
1GG	-chi,>	4G	che	4B	che	1g	-à	1.dd	S'av-
.	.	4A	spi-	4c	spi-	.	.	.	.
.	.	4B	-rar	4d	-rar	.	.	.	.
.	.	4c	in	4e	in	.	.	.	.
1r	.	4d	lui	4f#X	lui	1r	.	.	.
.	.	4B	mi	2g	mi	.	.	.	.
.	.	2A	toc-	.	.	.	.	2cc	-ver-
.	.	.	.	4f#X	toc-	.	.	.	.
=32	=32	=32	=32	=32	=32	=32	=32	=32	=32
2r	.	1G	-chi,	2g	-chi,	4d	che	2b	-rà
.	.	.	.	.	.	4d	spi-	.	.
4C	che	.	.	4g	<che	4e	-rar	2r	.
4D	spi-	.	.	4fnXi	spi-	4f	in	.	.
4E	-rar	4G	<che	4e	-rar	4g	lui	2r	.
4F	in	4A	spi-	4c	in	4f	mi	.	.
4G	lui	4B	-rar	4B	lui	4d	toc-	4.g	che
4C	mi	4c	in	4G	mi	4e	-chi,	.	.
.	.	.	.	.	.	.	.	8a	spi-
=33	=33	=33	=33	=33	=33	=33	=33	=33	=33
0GG	toc-	4d	lui	2G	toc-	4g	<che	4b	-rar
.	.	4e	mi	.	.	4a	spi-	4cc	in
.	.	4d	toc-	4G	-chi,>	4b	-rar	4dd	lui
.	.	8G	-chi,>	4g	in	4cc	in	4ee	mi
.	.	8G	in	.	.	.	.	.	.
.	.	4B	lui	4g	lui	4dd	lui	4dd	toc-
.	.	4c	mi	4e	mi	4ee	mi	2cc	.
.	.	2d	toc-	2g	toc-	2dd	toc-	.	.
.	.	.	.	.	.	.	.	4b	.
=34	=34	=34	=34	=34	=34	=34	=34	=34	=34
0Cl	-chi.	0cl	-chi.	0gl	-chi.	0eel	-chi.>	0ccl	-chi.
==	==	==	==	==	==	==	==	==	==
*-	*-	*-	*-	*-	*-	*-	*-	*-	*-
!!!system-decoration: [*]
!!!RDF**kern: i = editorial accidental
!!!RDF**kern: l = terminal long
!!!ENC: Emiliano Ricciardi
!!!END: 2018
!!!EED: Ricciardi, Emiliano
!!!EEV: 2018/10/28
!!!YEC: Copyright 2018 Emiliano Ricciardi, All Rights Reserved
!!!ONB: Translated from MusicXML on 2018/10/28 and edited by Craig Stuart Sapp
!!@@BEGIN:	VERSEDATA
!!@SOLERTI:	289
!!@CATALOGNUM:	Trm0289
!!@LAST_MODIFIED: 2020/07/12
!!@TITLE:		Già tu volasti quattro volte e sei
!!@GENRE:		madrigale
!!@MANUSRC:	none
!!@PRINTSRC:	27, 49, 70, 141, 166, 169
!!@@BEGIN:	VERSES
!!@ABOUTIT:	Invidia la morte d'una farfalla
!!@ABOUTEN:	He envies the death of a butterfly
!!@EDITOR:	Solerti, Angelo
!!@EDITION_TITLE: Le Rime di Torquato Tasso
!!@EDITION_LOC:	Bologna
!!@EDITION_PUB:	Romagnoli-Dall’Acqua
!!@EDITION_DATE:  1898-1902
!!@EDITION_VOL:	2
!!@EDITION_PAGE:  358
!!@TRANSLATOR:	Emiliano Ricciardi and Amyrose McCue Gill
!!@VERSE:
!!	Già tu volasti quattro volte e sei
!!	In quel petto sì molle,
!!	Vaga farfalla, or morta al lume sei.
!!	Non bramo io luce, né son tanto folle;
!!	Ma la morte vorrei
!!	Dove fortuna darla a te non volle.
!!	Oh dolce chiuder gli occhi,
!!	S'avverrà che spirare in lui mi tocchi!
!!@TVERSE:
!!	Already you flew four times and you are
!!	In that so tender breast,
!!	A lovely butterfly, now you are [struck] dead by the lamp.
!!	I do not desire light, nor am I so foolish;
!!	But I would want death
!!	Where fate did not want to give it to you.
!!	O sweet closing of eyes,
!!	If [only] it will come to pass that I expire within it.
!!@@END:		VERSES
!!@OTHER_CRIT_ED:   None
!!@ATTRIBUTION_ABOUT: Secure
!!		<br>
!!		This poem is attributed to Tasso in two independent prints and reprints thereof (see Literary Sources)
!!@DATING:	In or before 1586
!!		<br>
!!		The earliest appearance of this poem is in <i>Delle rime et prose del Sig. Torquato Tasso. Parte quarta.</i> published by Vasalini in 1586 (see Literary Sources).
!!@DEDICATEE:
!!@COMMENTARY:
!!@@END:		VERSEDATA
!!@@BEGIN:	SETTING
!!@CATALOGNUM:	Trm0289a
!!@RIMETITLE:	Già tu volasti quattro volte e sei
!!@SOLERTI:	289
!!@COMPOSER:	Bonini, Pietro Andrea
!!@PRINCEPSTITLE:	Il primo libro de madrigali a cinque voci
!!@PRINCEPSLOC:	Venetia
!!@NORMLOC:	Venice
!!@NORMPUB:	Angelo Gardano
!!@NORMPUBSHORT:	Gardano
!!@PRINCEPSPUB:	Gardano
!!@PRINCEPSYEAR:	1591
!!@PRINCEPSRISM:	B 3493
!!@REPRINTS:	
!!@OVOICES:	5
!!@EXTANTVOICES:	5
!!@PARTBOOKS:	
!!@EXTPARTBOOKS:	
!!@OCLEFS:	C1,C1,C3,C4,F4
!!@OMENSURATION:	C
!!@OKEYSIG:	-
!!@FINAL:	C
!!@TIMPEDITOR:	Ricciardi, Emiliano
!!@NOTE:		
!!@@END:		SETTING
